src/pos-icons/barcode-scan.svg

<svg height="24" viewBox="0 0 24 24" width="24" xmlns="http://www.w3.org/2000/svg"><path d="m4 6h2v12h-2zm3 0h1v12h-1zm2 0h3v12h-3zm4 0h1v12h-1zm3 0h2v12h-2zm3 0h1v12h-1zm-17-2v4h-2v-4a2 2 0 0 1 2-2h4v2zm20-2a2 2 0 0 1 2 2v4h-2v-4h-4v-2zm-20 14v4h4v2h-4a2 2 0 0 1 -2-2v-4zm20 4v-4h2v4a2 2 0 0 1 -2 2h-4v-2z"/></svg>

<?xml version="1.0" encoding="UTF-8"?><!DOCTYPE svg PUBLIC "-//W3C//DTD SVG 1.1//EN" "http://www.w3.org/Graphics/SVG/1.1/DTD/svg11.dtd"><svg xmlns="http://www.w3.org/2000/svg" xmlns:xlink="http://www.w3.org/1999/xlink" version="1.1" id="mdi-barcode-scan" width="24" height="24" viewBox="0 0 24 24"><path d="M4,6H6V18H4V6M7,6H8V18H7V6M9,6H12V18H9V6M13,6H14V18H13V6M16,6H18V18H16V6M19,6H20V18H19V6M2,4V8H0V4A2,2 0 0,1 2,2H6V4H2M22,2A2,2 0 0,1 24,4V8H22V4H18V2H22M2,16V20H6V22H2A2,2 0 0,1 0,20V16H2M22,20V16H24V20A2,2 0 0,1 22,22H18V20H22Z" /></svg>
